X:1
T:Vexilla, LM
T:Vexilla, LM
T:Horatio William Parker, 1894
T:Public Domain Courtesy of the Cyber Hymnal™
C:Horatio William Parker, 1894
Z:Public Domain
Z:Courtesy of the Cyber Hymnal™
%%score ( 1 2 ) ( 3 4 )
L:1/8
Q:1/4=108
M:4/4
K:Db
V:1 treble 
V:2 treble 
V:3 bass 
V:4 bass 
V:1
 A2 | A3 A [AB]2 [Gc]2 | [Fd]2 (cB) [FA]2 [FB]2 | G2 [EA]2 =F2 [DA]2 | %4
 [Fd]2 (cB) !fermata![CA]2 A2 | _c2 z c [GB]2 [FA]2 | [EG]2 [=DF]2 E2 [_DF]2 | [DG]2 (FE) D2 B2 | %8
 [DB]2 [CA]2 D4 |] %9
V:2
 A2 | A3 A x4 | x2 G2 x4 | (^FE) x (E D) x3 | x2 =E2 x A2 x | _c3 A2 x3 | x4 E2 x2 | %7
 x2 C2 D2 (ED) | x4 D4 |] %9
V:3
 A,2 | A,2 [G,C]2 [F,D]2 [E,E]2 | [D,A,]2 [E,C]2 [F,D]2 [B,,=D]2 | %3
 [E,B,]2 [C,A,]2 [D,A,]2 [C,F,]2 | (F,B,) (A,=G,) !fermata![F,A,]2 A,2 | %5
 _C2 [F,E]2 [B,=D]2 [B,,D]2 | [E,B,]2 [F,B,]2 [G,B,]2 [F,B,]2 | [E,B,]2 (A,G,) [B,,F,]2 (G,F,) | %8
 (E,F,) [A,,G,]2 [D,F,]4 |] %9
V:4
 A,2 | A,2 x6 | x8 | x8 | B,,2 C,2 x A,2 x | _C2 x6 | x8 | x2 A,,2 x G,,2 x | A,,2 x6 |] %9

